src/icons/files/capacitor.svg

<svg width="24" height="24" viewBox="0 0 24 24" fill="none" xmlns="http://www.w3.org/2000/svg">
<path d="M19.081 2.35001L14.286 7.14501L9.61998 2.48201L7.04998 5.05001L11.714 9.71501L14.284 12.285L18.989 16.99L21.559 14.42L16.854 9.71501L21.649 4.91801L19.081 2.35001ZM5.05198 7.05001L2.48198 9.62001L7.14698 14.284L2.34998 19.08L4.91998 21.65L9.71598 16.854L14.42 21.559L16.99 18.989L9.71598 11.715L5.05198 7.05001Z" fill="#60A5FA"/>
</svg>

<svg viewBox="0 0 24 24" xmlns="http://www.w3.org/2000/svg"><path d="m19.081 2.35-4.795 4.795L9.62 2.482 7.05 5.05l4.664 4.665 2.57 2.57 4.705 4.705 2.57-2.57-4.705-4.705 4.795-4.797zM5.052 7.05l-2.57 2.57 4.665 4.664L2.35 19.08l2.57 2.57 4.796-4.796 4.704 4.705 2.57-2.57-7.274-7.274z" style="fill:#4fc3f7;paint-order:fill markers stroke"/></svg>
